X:1
T:Staines Morris, 3rd Setting.
M:4/4
L:1/8
Q:1/2=100
S:Daniel Wright, 1715, An Extraordinary Collection Of Pleasant And Merry Humours.
N:John of the Greeny Cheshire Way, John Offord
S:Chris Partington tradtunes 2009-2-21
Z:Chris Partington
K:G
d2d2 e2e2|fgfg a2g2|fgef d2c2|BcBA G4:|
|:c2e4dc|BABc d2ef|g2d2 e2dc|BcAB G4:|
